packages/ffe-icons/icons/filled/sm/fit_screen.svg

<svg xmlns="http://www.w3.org/2000/svg" height="20" viewBox="0 -960 960 960" width="20"><path d="M792-601.999v-81.692q0-4.616-3.846-8.463-3.847-3.846-8.463-3.846h-81.692q-11.049 0-18.524-7.418Q672-710.836 672-721.802q0-10.966 7.475-18.581 7.475-7.616 18.524-7.616h81.692q27.008 0 45.658 18.65 18.65 18.65 18.65 45.658v81.692q0 11.049-7.419 18.524Q829.162-576 818.196-576q-10.966 0-18.581-7.475T792-601.999Zm-675.999 0v-81.692q0-27.008 18.65-45.658 18.65-18.65 45.658-18.65h81.692q11.049 0 18.524 7.419Q288-733.162 288-722.196q0 10.966-7.475 18.581T262.001-696h-81.692q-4.616 0-8.463 3.846-3.846 3.847-3.846 8.463v81.692q0 11.049-7.418 18.524Q153.164-576 142.198-576q-10.966 0-18.581-7.475-7.616-7.475-7.616-18.524Zm663.69 389.998h-81.692q-11.049 0-18.524-7.419Q672-226.838 672-237.804q0-10.966 7.475-18.581T697.999-264h81.692q4.616 0 8.463-3.846 3.846-3.847 3.846-8.463v-81.692q0-11.049 7.418-18.524Q806.836-384 817.802-384q10.966 0 18.581 7.475 7.616 7.475 7.616 18.524v81.692q0 27.008-18.65 45.658-18.65 18.65-45.658 18.65Zm-599.382 0q-27.008 0-45.658-18.65-18.65-18.65-18.65-45.658v-81.692q0-11.049 7.419-18.524Q130.838-384 141.804-384q10.966 0 18.581 7.475T168-358.001v81.692q0 4.616 3.846 8.463 3.847 3.846 8.463 3.846h81.692q11.049 0 18.524 7.418Q288-249.164 288-238.198q0 10.966-7.475 18.581-7.475 7.616-18.524 7.616h-81.692Zm76.615-205.318v-125.713q0-26.563 18.891-45.303 18.89-18.741 45.416-18.741h317.538q26.526 0 45.416 18.916 18.891 18.916 18.891 45.479v125.713q0 26.563-18.891 45.303-18.89 18.741-45.416 18.741H321.231q-26.526 0-45.416-18.916-18.891-18.916-18.891-45.479Z"/></svg>

<svg xmlns="http://www.w3.org/2000/svg" height="20" viewBox="0 -960 960 960" width="20"><path d="M792-602v-81.69q0-4.62-3.85-8.46-3.84-3.85-8.46-3.85H698q-11.05 0-18.53-7.42-7.47-7.42-7.47-18.38 0-10.97 7.47-18.58Q686.95-748 698-748h81.69q27.01 0 45.66 18.65Q844-710.7 844-683.69V-602q0 11.05-7.42 18.53-7.42 7.47-18.38 7.47-10.97 0-18.58-7.47Q792-590.95 792-602Zm-676 0v-81.69q0-27.01 18.65-45.66Q153.3-748 180.31-748H262q11.05 0 18.53 7.42 7.47 7.42 7.47 18.38 0 10.97-7.47 18.58Q273.05-696 262-696h-81.69q-4.62 0-8.46 3.85-3.85 3.84-3.85 8.46V-602q0 11.05-7.42 18.53-7.42 7.47-18.38 7.47-10.97 0-18.58-7.47Q116-590.95 116-602Zm663.69 390H698q-11.05 0-18.53-7.42-7.47-7.42-7.47-18.38 0-10.97 7.47-18.58Q686.95-264 698-264h81.69q4.62 0 8.46-3.85 3.85-3.84 3.85-8.46V-358q0-11.05 7.42-18.53 7.42-7.47 18.38-7.47 10.97 0 18.58 7.47Q844-369.05 844-358v81.69q0 27.01-18.65 45.66Q806.7-212 779.69-212Zm-599.38 0q-27.01 0-45.66-18.65Q116-249.3 116-276.31V-358q0-11.05 7.42-18.53 7.42-7.47 18.38-7.47 10.97 0 18.58 7.47Q168-369.05 168-358v81.69q0 4.62 3.85 8.46 3.84 3.85 8.46 3.85H262q11.05 0 18.53 7.42 7.47 7.42 7.47 18.38 0 10.97-7.47 18.58Q273.05-212 262-212h-81.69Zm76.61-205.32v-125.71q0-26.57 18.89-45.31 18.89-18.74 45.42-18.74h317.54q26.53 0 45.42 18.92t18.89 45.48v125.71q0 26.57-18.89 45.31-18.89 18.74-45.42 18.74H321.23q-26.53 0-45.42-18.92t-18.89-45.48Z"/></svg>
